public/media/icons-technologies/JAVASCRIPT.svg

<svg width="140" height="140" viewBox="0 0 140 140" fill="none" xmlns="http://www.w3.org/2000/svg">
<g clip-path="url(#clip0_205_1388)">
<path d="M10 10H130V130H10V10Z" fill="#F0DB4F"/>
<path d="M120.179 101.38C119.3 95.9049 115.73 91.308 105.156 87.019C101.483 85.3308 97.3878 84.1218 96.1673 81.3384C95.7338 79.7186 95.6768 78.8061 95.9506 77.8251C96.7376 74.6426 100.536 73.6502 103.548 74.5627C105.487 75.2129 107.323 76.7073 108.43 79.0913C113.608 75.7378 113.597 75.7605 117.213 73.4564C115.89 71.4032 115.182 70.4563 114.316 69.5781C111.202 66.099 106.958 64.3081 100.171 64.445C98.9962 64.5933 97.81 64.7529 96.635 64.9013C93.2473 65.7568 90.019 67.5362 88.1255 69.9203C82.4449 76.3651 84.0646 87.6464 90.9772 92.2891C97.7871 97.3994 107.791 98.5629 109.068 103.342C110.312 109.194 104.768 111.087 99.2585 110.415C95.1977 109.57 92.9393 107.506 90.4981 103.753C86.0039 106.354 86.0039 106.354 81.3841 109.012C82.4792 111.407 83.6312 112.491 85.4678 114.567C94.1598 123.384 115.913 122.951 119.814 109.605C119.973 109.148 121.023 106.091 120.179 101.38ZM75.2357 65.1521H64.0114C64.0114 74.8479 63.9659 84.4753 63.9659 94.1711C63.9659 100.342 64.2853 106 63.2815 107.734C61.6389 111.144 57.3841 110.722 55.445 110.061C53.4716 109.091 52.4678 107.711 51.3043 105.76C50.9849 105.202 50.7454 104.768 50.6654 104.734C47.6199 106.593 44.5855 108.464 41.5399 110.323C43.0571 113.437 45.2928 116.141 48.1559 117.897C52.4335 120.464 58.1825 121.251 64.194 119.871C68.1066 118.73 71.4829 116.369 73.2509 112.776C75.8061 108.065 75.2585 102.361 75.2357 96.0532C75.2928 85.7643 75.2357 75.4753 75.2357 65.1521Z" fill="#323330"/>
</g>
<defs>
<clipPath id="clip0_205_1388">
<rect width="120" height="120" fill="white" transform="translate(10 10)"/>
</clipPath>
</defs>
</svg>

<svg xmlns="http://www.w3.org/2000/svg" fill="none" viewBox="0 0 140 140">
  <g clip-path="url(#a)">
    <path fill="#F0DB4F" d="M10 10h120v120H10V10Z"/>
    <path fill="#323330" d="M120.18 101.38c-.88-5.48-4.45-10.07-15.02-14.36-3.68-1.69-7.77-2.9-9-5.68-.43-1.62-.48-2.53-.2-3.51.78-3.19 4.58-4.18 7.59-3.27a8.36 8.36 0 0 1 4.88 4.53c5.18-3.35 5.17-3.33 8.78-5.63-1.32-2.06-2.03-3-2.9-3.88-3.1-3.48-7.35-5.27-14.14-5.14l-3.53.46c-3.4.86-6.62 2.64-8.51 5.02-5.69 6.45-4.07 17.73 2.85 22.37 6.8 5.1 16.81 6.27 18.09 11.05 1.24 5.85-4.3 7.75-9.81 7.08-4.06-.85-6.32-2.91-8.76-6.67l-9.12 5.26c1.1 2.4 2.25 3.48 4.09 5.56 8.69 8.81 30.44 8.38 34.34-4.96.16-.46 1.21-3.52.37-8.23ZM75.24 65.15H64c0 9.7-.04 19.33-.04 29.02 0 6.17.32 11.83-.69 13.56-1.64 3.41-5.9 3-7.84 2.33-1.97-.97-2.97-2.35-4.14-4.3-.32-.56-.55-1-.63-1.03l-9.13 5.6a18.03 18.03 0 0 0 6.62 7.57c4.27 2.56 10.02 3.35 16.03 1.97 3.92-1.14 7.3-3.5 9.06-7.1 2.56-4.7 2-10.4 1.99-16.72.05-10.29 0-20.57 0-30.9Z"/>
  </g>
  <defs>
    <clipPath id="a">
      <path fill="#fff" d="M0 0h120v120H0z" transform="translate(10 10)"/>
    </clipPath>
  </defs>
</svg>
